app/assets/images/icons/facebook.svg

<svg width="20px" height="20px" viewBox="0 0 20 20" version="1.1" xmlns="http://www.w3.org/2000/svg" xmlns:xlink="http://www.w3.org/1999/xlink" xmlns:sketch="http://www.bohemiancoding.com/sketch/ns">
    <!-- Generator: Sketch 3.3.2 (12043) - http://www.bohemiancoding.com/sketch -->
    <title>Facebook</title>
    <desc>Created with Sketch.</desc>
    <defs></defs>
    <g id="Page-1" stroke="none" stroke-width="1" fill="none" fill-rule="evenodd" sketch:type="MSPage">
        <g id="Facebook" sketch:type="MSArtboardGroup" transform="translate(-14.000000, -14.000000)">
            <g sketch:type="MSLayerGroup" transform="translate(14.000000, 14.000000)">
                <rect id="BG-Copy-14" sketch:type="MSShapeGroup" x="0" y="0" width="20" height="20"></rect>
                <path d="M18.818209,0 L1.09925373,0 C0.492089552,0 0,0.492014925 0,1.09925373 L0,18.818209 C0,19.4252985 0.492089552,19.9174627 1.09925373,19.9174627 L10.6385075,19.9174627 L10.6385075,12.204403 L8.04291045,12.204403 L8.04291045,9.19843284 L10.6385075,9.19843284 L10.6385075,6.98164179 C10.6385075,4.40902985 12.2097761,3.00820896 14.5047015,3.00820896 C15.6039552,3.00820896 16.548806,3.09007463 16.8241045,3.12664179 L16.8241045,5.81514925 L15.2324627,5.81589552 C13.9843284,5.81589552 13.7426866,6.40895522 13.7426866,7.27925373 L13.7426866,9.19843284 L16.7193284,9.19843284 L16.3317164,12.204403 L13.7426866,12.204403 L13.7426866,19.9174627 L18.818209,19.9174627 C19.4252985,19.9174627 19.9174627,19.4252985 19.9174627,18.818209 L19.9174627,1.09925373 C19.9174627,0.492014925 19.4252985,0 18.818209,0" id="Imported-Layers" fill="#6E6E6E" sketch:type="MSShapeGroup"></path>
            </g>
        </g>
    </g>
</svg>

<!-- Generator: Adobe Illustrator 18.1.1, SVG Export Plug-In . SVG Version: 6.00 Build 0)  -->
<svg version="1.1" id="Ebene_1" xmlns="http://www.w3.org/2000/svg" xmlns:xlink="http://www.w3.org/1999/xlink" x="0px" y="0px"
	 viewBox="0 0 20 20" enable-background="new 0 0 20 20" xml:space="preserve">
<path fill="#444444" d="M18.9,0H1.1C0.5,0,0,0.5,0,1.1v17.7C0,19.5,0.5,20,1.1,20h9.5v-7.7H8.1v-3h2.6V7c0-2.6,1.6-4,3.9-4
	c1.1,0,2,0.1,2.3,0.1v2.7l-1.6,0c-1.2,0-1.5,0.6-1.5,1.5v1.9h3l-0.4,3h-2.6V20h5.1c0.6,0,1.1-0.5,1.1-1.1V1.1C20,0.5,19.5,0,18.9,0
	L18.9,0z"/>
</svg>
